pp/pen.svg

<svg viewBox="0 0 20 20" fill="none" xmlns="http://www.w3.org/2000/svg" height="1em" width="1em">
  <g clip-path="url(#a)">
    <path fill-rule="evenodd" clip-rule="evenodd" d="M13.1976 1.21963L3.11966 11.2976C2.96919 11.448 2.87064 11.6426 2.83835 11.8529L2.1329 16.4474C2.0304 17.115 2.6055 17.6901 3.27308 17.5876L7.86761 16.8822C8.07794 16.8499 8.27249 16.7513 8.42296 16.6009L18.5009 6.52294C18.8914 6.13241 18.8914 5.49925 18.5009 5.10872L14.6118 1.21963C14.2213 0.82911 13.5881 0.829111 13.1976 1.21963ZM4.31655 15.404L4.76547 12.4802L13.9047 3.34095L16.3796 5.81583L7.24035 14.9551L4.31655 15.404Z" fill="currentColor"/>
    <path d="M11.442 5.24658L12.5027 4.18592L15.7436 7.42683L14.6829 8.48749L11.442 5.24658Z" fill="currentColor"/>
  </g>
  <defs>
    <clipPath id="a">
      <rect width="20" height="20" fill="white"/>
    </clipPath>
  </defs>
</svg>

<svg viewBox="0 0 20 20" fill="none" xmlns="http://www.w3.org/2000/svg" height="1em" width="1em">
  <g clip-path="url(#a)" fill="currentColor">
    <path fill-rule="evenodd" clip-rule="evenodd" d="M13.198 1.22 3.12 11.298a1 1 0 0 0-.282.555l-.705 4.594a1 1 0 0 0 1.14 1.14l4.595-.705a1 1 0 0 0 .555-.281L18.501 6.523a1 1 0 0 0 0-1.414l-3.89-3.89a1 1 0 0 0-1.413 0ZM4.317 15.404l.448-2.924 9.14-9.14 2.475 2.476-9.14 9.14-2.923.448Z"/>
    <path d="m11.442 5.247 1.06-1.061 3.242 3.24-1.061 1.061-3.241-3.24Z"/>
  </g>
  <defs>
    <clipPath id="a">
      <path fill="#fff" d="M0 0h20v20H0z"/>
    </clipPath>
  </defs>
</svg>
